X: 148113
M: 6/8
L: 1/8
K: Em
vE2vF uG2uA | B2B B2A | G2B d2B | A2F D3 |\
E2F G2A | B2B e3 | d<dB B2A | B2E E2 :|
|: uE |\
ve2ve uB2uB | e2e B2^c | d2B A2G | F2E D2D |\
e2e B2B | e2e B2^c | d2B A2G | F2D A2"_D.C."F :|


